X:17
T:Portroe Jig, The
T:Out on the Ocean
E:10
S:P. Canny and P.J. Hayes
R:jig
M:6/8
I:speed 350
K:G
GA|B3 BAG|BdB A2B|GED G2A|BAB GED|\
~B3 BAG|BdB A2B|GED G2A|BGF G:|*
Bd|efe edB|efe edB|d2d dBA|ded dBA|\
G2A B2d|efe dBA|GED G2A|BGF G:|**
<end>
<start>
